modules/feathericon/icons/bug.svg

<?xml version="1.0" encoding="UTF-8"?>
<svg width="24px" height="24px" viewBox="0 0 24 24" version="1.1" xmlns="http://www.w3.org/2000/svg" xmlns:xlink="http://www.w3.org/1999/xlink">
    <!-- Generator: sketchtool 52.2 (67145) - http://www.bohemiancoding.com/sketch -->
    <title>bug</title>
    <desc>Created with sketchtool.</desc>
    <g id="production" stroke="none" stroke-width="1" fill="none" fill-rule="evenodd">
        <g id="bug" fill="#000000">
            <path d="M6,15 L4,15 C3.44771525,15 3,14.5522847 3,14 C3,13.4477153 3.44771525,13 4,13 L6,13 L6,11.6634596 C5.65781264,11.7679352 5.27063963,11.6848532 5,11.4142136 L3.58578644,10 C3.19526215,9.60947571 3.19526215,8.97631073 3.58578644,8.58578644 C3.97631073,8.19526215 4.60947571,8.19526215 5,8.58578644 L6.13636519,9.72215162 C6.4824839,8.12647798 7.46339164,6.76745617 8.80142713,5.92274747 L7.58578644,4.70710678 C7.19526215,4.31658249 7.19526215,3.68341751 7.58578644,3.29289322 C7.97631073,2.90236893 8.60947571,2.90236893 9,3.29289322 L10.8225886,5.11548186 C11.2033114,5.03972828 11.5970162,5 12,5 C12.4029838,5 12.7966886,5.03972828 13.1774114,5.11548186 L15,3.29289322 C15.3905243,2.90236893 16.0236893,2.90236893 16.4142136,3.29289322 C16.8047379,3.68341751 16.8047379,4.31658249 16.4142136,4.70710678 L15.1985729,5.92274747 C16.5366084,6.76745617 17.5175161,8.12647798 17.8636348,9.72215162 L19,8.58578644 C19.3905243,8.19526215 20.0236893,8.19526215 20.4142136,8.58578644 C20.8047379,8.97631073 20.8047379,9.60947571 20.4142136,10 L19,11.4142136 C18.7293604,11.6848532 18.3421874,11.7679352 18,11.6634596 L18,13 L20,13 C20.5522847,13 21,13.4477153 21,14 C21,14.5522847 20.5522847,15 20,15 L18,15 C18,15.4833532 17.9428451,15.9533571 17.8349249,16.4036221 C18.2111704,16.2097441 18.6846791,16.2704655 19,16.5857864 L20.4142136,18 C20.8047379,18.3905243 20.8047379,19.0236893 20.4142136,19.4142136 C20.0236893,19.8047379 19.3905243,19.8047379 19,19.4142136 L17.5857864,18 C17.4908166,17.9050302 17.4189421,17.7957108 17.3701628,17.6790211 C16.3860123,19.6479493 14.3509003,21 12,21 C9.64909966,21 7.61398767,19.6479493 6.62983718,17.6790211 C6.58105792,17.7957108 6.50918338,17.9050302 6.41421356,18 L5,19.4142136 C4.60947571,19.8047379 3.97631073,19.8047379 3.58578644,19.4142136 C3.19526215,19.0236893 3.19526215,18.3905243 3.58578644,18 L5,16.5857864 C5.3153209,16.2704655 5.78882962,16.2097441 6.16507509,16.4036221 C6.05715493,15.9533571 6,15.4833532 6,15 Z M15.8739825,10 L8.12601749,10 C8.57006028,8.27477279 10.1361606,7 12,7 C13.8638394,7 15.4299397,8.27477279 15.8739825,10 Z M15.8739825,16 C15.4299397,17.7252272 13.8638394,19 12,19 C10.1361606,19 8.57006028,17.7252272 8.12601749,16 L15.8739825,16 Z" id="Shape"></path>
        </g>
    </g>
</svg>

<svg width="24" height="24" viewBox="0 0 24 24" xmlns="http://www.w3.org/2000/svg"><path d="M6 15H4a1 1 0 0 1 0-2h2v-1.337a1 1 0 0 1-1-.249L3.586 10A1 1 0 0 1 5 8.586l1.136 1.136a6.007 6.007 0 0 1 2.665-3.8L7.586 4.708A1 1 0 0 1 9 3.293l1.823 1.822a6.029 6.029 0 0 1 2.354 0L15 3.293a1 1 0 0 1 1.414 1.414L15.2 5.923a6.007 6.007 0 0 1 2.665 3.8L19 8.585A1 1 0 0 1 20.414 10L19 11.414a1 1 0 0 1-1 .25V13h2a1 1 0 0 1 0 2h-2c0 .483-.057.953-.165 1.404a1 1 0 0 1 1.165.182L20.414 18A1 1 0 0 1 19 19.414L17.586 18a.997.997 0 0 1-.216-.321A6 6 0 0 1 12 21a6 6 0 0 1-5.37-3.321.997.997 0 0 1-.216.321L5 19.414A1 1 0 1 1 3.586 18L5 16.586a1 1 0 0 1 1.165-.182A6.016 6.016 0 0 1 6 15zm9.874-5H8.126a4.002 4.002 0 0 1 7.748 0zm0 6a4.002 4.002 0 0 1-7.748 0h7.748z" fill="#000" fill-rule="evenodd"/></svg>
